X:4
T:Arscott
C:Air as sung at Tetcott, taken down by Mr. Richards, Schoolmaster, Tetcott.
%%VWML:SBG-3-1-15-0
F:http://www.vwml.org/record/SBG/3/1/15
Z:Original Sibleius Transcription by Martin and Shan Graebe
L:1/8
M:6/8
I:linebreak $
K:G
E/ E/ | B B B B B (B/ B/) | c A A A2 B | G G G F G A | B E E E2 E :|$ d e e e e f g | g d d d2 d | 
w: ||||* * * * Ri|fol- de- rol lol- de- rol _|fol- de- rol- lol came|
e e e g f e | d B B B ||$ G | B B B B B B | c A A A A B | G G G F G A | B E E E !fermata!E2 |] 
w: fol- de- rol lol- de- rol|lol- de- rol- lol|Came|o'er from * Pencarrow ||||
T:Arscott
T:“Difyrwch gwyr  Dyfl.” E. Jones: 
T:Musical relicks of the Welsh Bards, 1794 vol. I. p. 129.
L:1/8
M:6/8
I:linebreak $
K:F
F | F A A A c A | B G G G2 G | (A A) A B A G | F D D D2 z | d d (g e) d | c>d c/B/ A2 A |$ 
d2 d/e/ (f e) d | (^c A) A A2 A/B/ | c d c c B A | (B G) G G2 A/B/ | c A F (B A) G | F D D D2  |] 
T:Arscott
T:Dear Catholick Brother, 
T:from D’Urfey’s Pills to purge Melancholy ed. 1719-20. vol. VI. p. 277
L:1/4
M:3/4
I:linebreak $
K:C
D | A A A | B A A/G/ | F F F | F2 F | E E E | E A A | A D D | D2 (d/e/) |$ f (g/f/)(e/d/) | 
w: ||||||||||
e e e/d/ | c c c | c2 A | d d d | d2 e/d/ | c A A | A2 || F/G/ | A A A |] 
w: |||||||* Fa|la, la, la|
T:Arscott
T:Taken down from J. Benney, Butcher, Menheniot by F.W.B. Apl. 1891
L:1/4
M:3/4
I:linebreak $
K:F
C | C G G | G A B | A F F | F2 G | _E E C | D _E F | G C C | C2 G/A/ | B c B |$ A !fermata!G A | 
w: |||||||||||
B A G | F2 C | G G G | B A G | F D D | D C B, |$ G G G | G A B | A G F | F2 G | E D C | D E F | 
w: |||||* And sing|Fol-|
G c =B | c3 |] 
w: ||
